public/icons/crx.svg

<svg xmlns="http://www.w3.org/2000/svg" viewBox="0 0 41 41">
    <path d="M1.56009 18C1.56009 8.92061 8.92143 1.56009 18.0011 1.56009C27.0819 1.56009 34.4441 8.92156 34.4441 18.0021V34.4399H18C8.9205 34.4399 1.56009 27.0795 1.56009 18Z" stroke="black" stroke-width="3.12018" fill="white"/>
    <path d="M13.6652 26.4829C9.59549 26.4829 7.05518 23.2945 7.05518 19.51C7.05518 15.7255 9.59549 12.5371 13.6652 12.5371C16.9572 12.5371 19.1865 14.6886 19.7826 17.4881H16.4647C16.024 16.2439 14.9872 15.4922 13.6652 15.4922C11.6174 15.4922 10.2694 17.0993 10.2694 19.51C10.2694 21.9207 11.6174 23.5278 13.6652 23.5278C15.039 23.5278 16.1018 22.7243 16.5165 21.4023H19.8086C19.2642 24.2796 17.009 26.4829 13.6652 26.4829Z" fill="black"/>
    <path d="M21.1194 26.12V12.9H24.23V14.3257C24.9558 13.3666 26.0964 12.7445 27.8072 12.7445H28.6107V15.8032H27.7813C26.6148 15.8032 25.889 16.0624 25.3446 16.5549C24.7225 17.0734 24.3596 17.9288 24.3596 19.2249V26.12H21.1194Z" fill="black"/>
    <rect x="25" y="25" width="16" height="16" rx="1.5" ry="1.5" style="fill:#AE3F28;"/>
    <line x1="28" y1="28" x2="38.4" y2="38.4" style="stroke:white;stroke-width:2;stroke-linecap:round"/>
    <line x1="28" y1="38.4" x2="38.4" y2="28" style="stroke:white;stroke-width:2;stroke-linecap:round"/>
</svg>

<svg xmlns="http://www.w3.org/2000/svg" viewBox="0 0 41 41">
    <path fill="#fff" stroke="#000" stroke-width="3.12"
        d="M1.56 18c0-9.08 7.361-16.44 16.441-16.44s16.443 7.362 16.443 16.442V34.44H18C8.92 34.44 1.56 27.08 1.56 18Z" />
    <path
        d="M13.665 26.483c-4.07 0-6.61-3.189-6.61-6.973 0-3.785 2.54-6.973 6.61-6.973 3.292 0 5.522 2.152 6.118 4.951h-3.318c-.441-1.244-1.478-1.996-2.8-1.996-2.048 0-3.396 1.607-3.396 4.018s1.348 4.018 3.396 4.018c1.374 0 2.437-.804 2.852-2.126h3.292c-.545 2.878-2.8 5.08-6.144 5.08M21.12 26.12V12.9h3.11v1.426c.726-.96 1.866-1.582 3.577-1.582h.804v3.06h-.83c-1.166 0-1.892.258-2.436.75-.622.52-.985 1.375-.985 2.67v6.896z" />
    <rect width="16" height="16" x="25" y="25" rx="1.5" ry="1.5" style="fill:#ae3f28" />
    <path d="m28 28 10.4 10.4M28 38.4 38.4 28" style="stroke:#fff;stroke-width:2;stroke-linecap:round" />
</svg>
